!!!OTL: "Der Mann" MANN MANN WAS HAST DU IN DEINEM KOEBERCHEN
!!!ARE: Europa, Mitteleuropa, Deutschland, Niedersachsen
!!!SCT: Z1373
!!!YEM: Copyright 1995, estate of Helmut Schaffrath.
**kern
*ICvox
*Ivox
*M2/4
*k[f#c#g#]
*A:
=1
{4a
4a
=2
4a
8r}
{16b
16cc#
=3
8dd
8cc#
8b
8a
=4
8g#
8f#
4e}
=5
{4a
4a
=6
4a
8r}
{16g#
16a
=7
8b
8a
8g#
8a
=8
8g#
8f#
8e}
{8g#
=9
8b
8a
8g#
8b
=10
8.dd
16cc#
8b}
{8b
=11
8.a
16g#
8a
8b
=12
8.cc#
16dd
4ee}
=13
{4cc#
4b
=14
2a}
==
!!!AGN: Kinder - Lied
!!!ONB: ESAC (Essen Associative Code) Database: ZUCCAL
!!!AMT: simple duple
!!!AIN: vox
!!!EED: Helmut Schaffrath
!!!EEV: 1.0
*-
